usr/share/icons/EmeraldStarlight/mimetypes/16/application-atom+xml.svg

<?xml version="1.0" encoding="UTF-8" standalone="no"?>
<!-- Created with Inkscape (http://www.inkscape.org/) -->

<svg
   xmlns:dc="http://purl.org/dc/elements/1.1/"
   xmlns:cc="http://creativecommons.org/ns#"
   xmlns:rdf="http://www.w3.org/1999/02/22-rdf-syntax-ns#"
   xmlns:svg="http://www.w3.org/2000/svg"
   xmlns="http://www.w3.org/2000/svg"
   xmlns:sodipodi="http://sodipodi.sourceforge.net/DTD/sodipodi-0.dtd"
   xmlns:inkscape="http://www.inkscape.org/namespaces/inkscape"
   width="16"
   height="16"
   id="svg2"
   version="1.1"
   inkscape:version="0.91+devel r"
   viewBox="0 0 16 16"
   sodipodi:docname="application-atom+xml.svg">
  <defs
     id="defs4" />
  <sodipodi:namedview
     id="base"
     pagecolor="#ffffff"
     bordercolor="#666666"
     borderopacity="1.0"
     inkscape:pageopacity="0.0"
     inkscape:pageshadow="2"
     inkscape:zoom="31.625"
     inkscape:cx="-2.624506"
     inkscape:cy="8"
     inkscape:document-units="px"
     inkscape:current-layer="layer1"
     showgrid="true"
     inkscape:showpageshadow="false"
     borderlayer="true"
     inkscape:window-width="1366"
     inkscape:window-height="670"
     inkscape:window-x="-4"
     inkscape:window-y="29"
     inkscape:window-maximized="1"
     units="px"
     inkscape:snap-bbox="true"
     inkscape:snap-global="true">
    <inkscape:grid
       type="xygrid"
       id="grid4101" />
    <sodipodi:guide
       position="2,14.000017"
       orientation="12,0"
       id="guide4071" />
    <sodipodi:guide
       position="2,2.0000174"
       orientation="0,12"
       id="guide4073" />
    <sodipodi:guide
       position="14,2.0000174"
       orientation="-12,0"
       id="guide4075" />
    <sodipodi:guide
       position="14,14.000017"
       orientation="0,-12"
       id="guide4077" />
  </sodipodi:namedview>
  <metadata
     id="metadata7">
    <rdf:RDF>
      <cc:Work
         rdf:about="">
        <dc:format>image/svg+xml</dc:format>
        <dc:type
           rdf:resource="http://purl.org/dc/dcmitype/StillImage" />
        <dc:title />
      </cc:Work>
    </rdf:RDF>
  </metadata>
  <g
     inkscape:label="Capa 1"
     inkscape:groupmode="layer"
     id="layer1"
     transform="translate(0,-1036.3622)">
    <path
       style="color:#000000;fill:#f27935;fill-opacity:1;fill-rule:nonzero;stroke:none;stroke-width:0.1;marker:none;visibility:visible;display:inline;overflow:visible;enable-background:accumulate"
       d="M 2 2 L 2 3 L 2 4 C 7.5228475 4 12 8.4771538 12 14 L 14 14 C 14 13.978814 14.00011 13.95866 14 13.9375 C 14 13.54628 13.974212 13.162781 13.9375 12.78125 C 13.935396 12.760535 13.939709 12.739434 13.9375 12.71875 C 13.898865 12.337871 13.823537 11.963149 13.75 11.59375 C 13.745921 11.573817 13.754178 11.551147 13.75 11.53125 C 13.513576 10.374719 13.106737 9.2893029 12.5625 8.28125 C 12.558349 8.2736081 12.566667 8.2576318 12.5625 8.25 C 11.083622 5.5263066 8.5791561 3.4520375 5.5625 2.53125 C 5.2059209 2.4203423 4.8387302 2.327682 4.46875 2.25 C 4.4487903 2.2459197 4.426246 2.2539806 4.40625 2.25 C 4.0357216 2.1741789 3.6633615 2.1033085 3.28125 2.0625 C 3.2607145 2.060417 3.2393163 2.064479 3.21875 2.0625 C 2.8359783 2.0236274 2.4550493 2.0020345 2.0625 2 C 2.0414115 2 2.0210627 1.999891 2 2 z M 2 6 L 2 7 L 2 8 C 5.3137084 8 8 10.686305 8 14 L 9 14 L 10 14 C 10 9.5817315 6.418278 6 2 6 z M 4 10 C 2.8954305 10 2 10.895431 2 12 C 2 13.104569 2.8954305 14 4 14 C 5.1045695 14 6 13.104569 6 12 C 6 10.895431 5.1045695 10 4 10 z "
       transform="translate(0,1036.3622)"
       id="path3843" />
  </g>
</svg>

<svg width="16" xmlns="http://www.w3.org/2000/svg" height="16" viewBox="0 0 16 16">
 <path fill="#fc963a" color="#000000" stroke-width=".1" d="m2 2v2c5.523 0 10 4.477 10 10h2c0-.021 0-.041 0-.063 0-.391-.026-.775-.063-1.156-.002-.021.002-.042 0-.063-.039-.381-.114-.756-.188-1.125-.004-.02.004-.043 0-.063-.236-1.157-.643-2.242-1.188-3.25-.004-.008.004-.024 0-.031-1.479-2.724-3.983-4.798-7-5.719-.357-.111-.724-.204-1.094-.281-.02-.004-.043.004-.063 0-.371-.076-.743-.147-1.125-.188-.021-.002-.042.002-.063 0-.383-.039-.764-.06-1.156-.063-.021 0-.041 0-.063 0m0 4v2c3.314 0 6 2.686 6 6h2c0-4.418-3.582-8-8-8m2 4c-1.105 0-2 .895-2 2 0 1.105.895 2 2 2 1.105 0 2-.895 2-2 0-1.105-.895-2-2-2"/>
</svg>
